X:20
T:Arbeadie
C: J. Scott Skinner
R: strathspey
M:C
L:1/8
Z: Jason R. Fruit <jason@starlight-glimmer>
K:D
A>G F>A D<D F2 | B>A G>B E<E G2 | A>G F>A D<D F2 | G>B C<A F<D D2 :|
g | f/g/a (3gfe dFAd | (3gab (3agf eGBe | f/g/a (3gfe dFAd | (3cde (3bag f<d d>g |
(3fga (3gfe dFAd | (3gab (3agf eGBe | f/g/a g/f/e (3dcB (3AGF | (3EFG (3ABc d<D D2 |]

